X:1
T:[ID 1-46b]
T:[ID 1-46b]
T:Bezeichnung standardisiert: Tantz Tantz
T:Urheber unbekannt Erstbeleg: vor 1767 (Datum in der schriftlichen Quelle) Datum in der hier transkribierten schriftlichen Quelle: 1767
C:Urheber unbekannt
C:Erstbeleg: vor 1767 (Datum in der schriftlichen Quelle)
C:Datum in der hier transkribierten schriftlichen Quelle: 1767
L:1/8
M:2/4
K:D
V:1 treble 
V:1
 aa/f/ g2 | aa/f/ g2 | fe/d/ e/g/e/c/ | dA FD ||"^1)" aa/f/ g2 | aa/f/ g2 | fe/d/ e/g/e/c/ | %7
 d2 D2 :: fe/f/ g2 | fe/d/ cA | fe/f/ g2 | fe/d/ eg | fe/d/ e/g/e/c/ | d2 D2 :| %14

